packages/icons/src/components/Icon/assets/small-solid/doc-paper.svg

<svg width="16" height="16" viewBox="0 0 16 16" fill="none" xmlns="http://www.w3.org/2000/svg">
<path fill-rule="evenodd" clip-rule="evenodd" d="M3.3335 1C2.367 1 1.5835 1.7835 1.5835 2.75V13.25C1.5835 14.2165 2.367 15 3.3335 15H12.6668C13.6333 15 14.4168 14.2165 14.4168 13.25V6.39154C14.4168 5.92741 14.2325 5.48229 13.9043 5.1541L10.2627 1.51256C9.93454 1.18437 9.48942 1 9.02529 1H3.3335ZM4.50016 7.70833C4.50016 7.22508 4.89191 6.83333 5.37516 6.83333H10.6252C11.1084 6.83333 11.5002 7.22508 11.5002 7.70833C11.5002 8.19158 11.1084 8.58333 10.6252 8.58333H5.37516C4.89191 8.58333 4.50016 8.19158 4.50016 7.70833ZM4.50016 11.2083C4.50016 10.7251 4.89191 10.3333 5.37516 10.3333H10.6252C11.1084 10.3333 11.5002 10.7251 11.5002 11.2083C11.5002 11.6916 11.1084 12.0833 10.6252 12.0833H5.37516C4.89191 12.0833 4.50016 11.6916 4.50016 11.2083Z" fill="#727683"/>
</svg>

<svg xmlns="http://www.w3.org/2000/svg" width="16" height="16" fill="none" viewBox="0 0 16 16">
    <path fill="#727683" fill-rule="evenodd" d="M3.334 1a1.75 1.75 0 0 0-1.75 1.75v10.5c0 .966.783 1.75 1.75 1.75h9.333a1.75 1.75 0 0 0 1.75-1.75V6.392c0-.465-.184-.91-.513-1.238l-3.641-3.641A1.75 1.75 0 0 0 9.025 1zM4.5 7.708c0-.483.392-.875.875-.875h5.25a.875.875 0 0 1 0 1.75h-5.25a.875.875 0 0 1-.875-.875m0 3.5c0-.483.392-.875.875-.875h5.25a.875.875 0 0 1 0 1.75h-5.25a.875.875 0 0 1-.875-.875" clip-rule="evenodd"/>
</svg>
